X:4473
T:Munster Grass
O:england
R:double jig
M:6/8
L:1/8
Q:120
K:C
cBA|:{A}G2G CEG|ced c2B|{B}A2A cGE|FEF DEF|
{A}G2G {d}c2c|ABA def|Gee dcd|1 ecB c2c:|2 ecB c||
c/d/e/f/|:gec ceg|afd g2G|efg fdc|BGG GEF|
Gcc Bdd|cee def|Gee dcd|ecc c3:||


